!!!COM:	Bach, Johann Sebastian
!!!CDT:	1685/02/21/-1750/07/28/
!!!OTL@@DE:	Gott der Vater wohn uns bei
!!!SCT:	BWV 317
!!!PC#:	135
!!!AGN:	chorale
**kern	**kern	**kern	**kern
*ICvox	*ICvox	*ICvox	*ICvox
*Ibass	*Itenor	*Ialto	*Isoprn
*I"Bass	*I"Tenor	*I"Alto	*I"Soprano
*>[A,A,B,B,C]	*>[A,A,B,B,C]	*>[A,A,B,B,C]	*>[A,A,B,B,C]
*>norep[A,B,C]	*>norep[A,B,C]	*>norep[A,B,C]	*>norep[A,B,C]
*>A	*>A	*>A	*>A
*clefF4	*clefGv2	*clefG2	*clefG2
*k[f#c#]	*k[f#c#]	*k[f#c#]	*k[f#c#]
*D:	*D:	*D:	*D:
*M4/4	*M4/4	*M4/4	*M4/4
*met(c)	*met(c)	*met(c)	*met(c)
*MM100	*MM100	*MM100	*MM100
=1-	=1-	=1-	=1-
4D	4d	4f#	4a
4D	4d	4f#	4a
8GL	4d	4g	4b
8F#J	.	.	.
4E	4e	4g	4cc#
=2	=2	=2	=2
8DL	8f#L	4a	4dd
8C#J	8eJ	.	.
4BB	4d	8aL	4dd
.	.	8g#J	.
4AA;	4e;	4a;	4cc#;
4E	4e	4gn	4b
=3	=3	=3	=3
4BB	4d	4f#	4dd
4C#	8eL	4e	4a
.	8AJ	.	.
4D	4A	8e	4f#
.	.	4d	.
4E	4G	.	4g
.	.	8c#	.
=4	=4	=4	=4
8F#L	4.A	4.d	4f#
8GJ	.	.	.
4A	.	.	4e
.	16ALL	8c#	.
.	16GJJ	.	.
2D;	2F#;	2A;	2d;
=5:|!|:	=5:|!|:	=5:|!|:	=5:|!|:
*>B	*>B	*>B	*>B
4D	4F#	4A	4d
4C#	4A	8AL	4e
.	.	[8eJ	.
4D	4A	8e]	4.f#
.	.	4d	.
4AA	8AL	.	.
.	8GJ	8c#	8e
=6	=6	=6	=6
8BBL	4F#	4B	4d
8AAJ	.	.	.
4GG	4B	4B	4e
4FF#;	4A#;	4c#;	4f#;
4BB	[4B	8dL	4dd
.	.	8eJ	.
=7	=7	=7	=7
4F#	8BL]	4f#	4cc#
.	8AnJ	.	.
4D	4f#	8f#L	4dd
.	.	[8bJ	.
4C#	4e	8bL]	4.ee
.	.	16aL	.
.	.	16g#JJ	.
4F#	8c#L	[4a	.
.	8dJ	.	8dd
=8	=8	=8	=8
4E	[4e	4a]	4cc#
4EE	8eL]	4g#	4b
.	8dJ	.	.
4AA;	4c#;	4e;	4a;
8AL	4c#	4e	4a
8GnJ	.	.	.
=9	=9	=9	=9
8F#L	4d	4f#	4a
8EJ	.	.	.
4D	4A	4f#	4dd
4AA	8AL	4e	4cc#
.	8GJ	.	.
4D	4F#	8dL	4a
.	.	8eJ	.
=10	=10	=10	=10
4D#	4B	4.f#	8bL
.	.	.	8aJ
4E	4B	.	4g
.	.	[8e	.
4BB;	4B;	8eL]	4f#;
.	.	8d#J;	.
4C#	8BL	4e	[4e
.	8AJ	.	.
=11	=11	=11	=11
4Dn	4A	8eL]	4f#
.	.	[8dnJ	.
4E	4G	8dL]	4g
.	.	[8c#J	.
4F#	8F#L	8c#L]	4.a
.	8AJ	[8dJ	.
4G	4B	8dL]	.
.	.	[8eJ	8g
=12	=12	=12	=12
4A	[4A	8e]	4f#
.	.	4d	.
4AA	8AL]	.	4e
.	8GJ	8c#	.
2D;	2F#;	2A;	2d;
=13:|!	=13:|!	=13:|!	=13:|!
*>C	*>C	*>C	*>C
4F#	4A	4A	4d
4C#	4A	8AL	[4e
.	.	[8eJ	.
4D	4A	8eL]	4.f#
.	.	[8dJ	.
8AL	4A	8dL]	.
8GJ	.	8c#J	8e
=14	=14	=14	=14
8F#	8AL	4d	4d
4D	8F#J	.	.
.	8GL	8BL	4e
8C#	8AJ	8eJ	.
4D;	4A;	4d;	4f#;
8DL	8F#L	[4d	4a
8EJ	8GJ	.	.
=15	=15	=15	=15
8F#L	8AL	8dL]	4a
8GJ	8BJ	8eJ	.
4A	4c#	8f#L	4a
.	.	8eJ	.
8BL	8dL	[4d	4f#
8AJ	8c#J	.	.
4G	4B	8dL]	4g
.	.	[8eJ	.
=16	=16	=16	=16
4A	[4A	8e]	4f#
.	.	4d	.
4AA	8AL]	.	4e
.	8GJ	8c#	.
2D;	2F#;	2A;	2d;
==	==	==	==
*-	*-	*-	*-
!!!hum2abc: -Q ''
!!!title: @{PC#}. @{OTL@@DE}
!!!YOR1: 371 vierstimmige Choralges&auml;nge von Johann Sebastian Bach, 
!!!YOR2: 4th ed. by Alfred D&ouml;rffel (Leipzig: Breitkopf und H&auml;rtel, 
!!!YOR2: c.1875). 178 pp. Plate "V.A.10".  reprint: J.S. Bach, 371 Four-Part 
!!!YOR4: Chorales (New York: Associated Music Publishers, Inc., c.1940).
!!!SMS: B&H, 4th ed, Alfred D&ouml;rffel, c.1875, plate V.A.10
!!!EED:  Craig Stuart Sapp
!!!EEV:  2009/05/22
